X:302
T:Monroe's Hornpipe
C:Bill Monroe
N:
R:bluegrass
L:1/8
Q:1/4=240
M:4/4
K:A
z8 |: "A"A,B, CE "D"DE FA | "E"EF GB "A"Ac BG | "A"A,B, CE "D"DE FA | "E"EF GB "A"A4 | 
"A"A,B, CE "D"DE FA | "E"EF GB "A"Ac BG | "A"A,B, CE "D"DE FA |1 "E"EF GB "A"A4 :|2 "E"EF GB "A"A2 EG | 
|: "A"A2 AB ce cB | Ac BA FE CE | A2 AB ce cB | Ac BA "F#m"F2 EG | "A"A2 AB ce cB | 
Ac BA FE A^A | B^A B=A =GA GF |1 E"E"D =C^C "A"A,2 EG :|2 E"E"D =C^C "A"A,4 | 


